64x64/apps/appimagekit-irccloud-desktop.svg

<svg xmlns="http://www.w3.org/2000/svg" width="64" height="64" version="1">
 <rect style="opacity:0.2" width="56" height="56" x="4" y="5" rx="2.8" ry="2.8"/>
 <rect style="fill:#2a7bdb" width="56" height="56" x="4" y="4" rx="2.8" ry="2.8"/>
 <path style="opacity:0.2" d="M 31,15 A 12,12 0 0 0 19.039062,26.228516 9,9 0 0 0 12,35 a 9,9 0 0 0 9,9 h -0.04297 l 0.81836,0.04492 c 0.194743,0.683519 0.372391,1.377102 0.324218,2.052734 0.02365,1.698428 -0.909404,2.73259 -2.052734,3.722656 -0.290794,0.154264 -0.51316,0.333746 -0.492187,0.398438 0.06912,0.213114 1.402557,0.667369 2.1875,0.746094 1.01273,0.101528 2.421687,-0.02172 3.228515,-0.324219 1.282776,-0.480939 2.313561,-1.282703 3.039063,-2.369141 0.62037,-0.929013 0.945543,-1.848164 1.042968,-2.921875 L 29.134766,44.044922 34.15625,44 H 44.5 A 7.5,7.5 0 0 0 52,36.5 7.5,7.5 0 0 0 44.5,29 7.5,7.5 0 0 0 42.789062,29.207031 12,12 0 0 0 43,27 12,12 0 0 0 31,15 Z"/>
 <path style="fill:#f4f4f7" d="M 31 14 A 12 12 0 0 0 19.039062 25.228516 A 9 9 0 0 0 12 34 A 9 9 0 0 0 21 43 L 20.957031 43 L 21.775391 43.044922 C 21.970134 43.728441 22.147782 44.422024 22.099609 45.097656 C 22.123259 46.796084 21.190205 47.830246 20.046875 48.820312 C 19.756081 48.974576 19.533715 49.154058 19.554688 49.21875 C 19.623808 49.431864 20.957245 49.886119 21.742188 49.964844 C 22.754918 50.066372 24.163875 49.943125 24.970703 49.640625 C 26.253479 49.159686 27.284264 48.357922 28.009766 47.271484 C 28.630136 46.342471 28.955309 45.42332 29.052734 44.349609 L 29.134766 43.044922 L 34.15625 43 L 44.5 43 A 7.5 7.5 0 0 0 52 35.5 A 7.5 7.5 0 0 0 44.5 28 A 7.5 7.5 0 0 0 42.789062 28.207031 A 12 12 0 0 0 43 26 A 12 12 0 0 0 31 14 z"/>
 <path style="fill:#f4f4f7;opacity:0.2" d="M 6.8007812 4 C 5.2495813 4 4 5.2495813 4 6.8007812 L 4 7.8007812 C 4 6.2495813 5.2495813 5 6.8007812 5 L 57.199219 5 C 58.750419 5 60 6.2495813 60 7.8007812 L 60 6.8007812 C 60 5.2495813 58.750419 4 57.199219 4 L 6.8007812 4 z"/>
</svg>

<svg xmlns="http://www.w3.org/2000/svg" width="64" height="64" version="1"><rect style="opacity:.2" width="56" height="56" x="4" y="5" rx="2.8" ry="2.8"/><rect style="fill:#2a7bdb" width="56" height="56" x="4" y="4" rx="2.8" ry="2.8"/><path style="opacity:.2" d="M31 15a12 12 0 0 0-11.96 11.229A9 9 0 0 0 12 35a9 9 0 0 0 9 9h-.043l.818.045c.195.683.373 1.377.325 2.053.023 1.698-.91 2.732-2.053 3.722-.29.155-.513.334-.492.399.069.213 1.402.667 2.187.746 1.013.101 2.422-.022 3.229-.324 1.282-.481 2.313-1.283 3.039-2.37.62-.929.945-1.848 1.043-2.921l.082-1.305L34.156 44H44.5a7.5 7.5 0 0 0 7.5-7.5 7.5 7.5 0 0 0-7.5-7.5 7.5 7.5 0 0 0-1.71.207A12 12 0 0 0 43 27a12 12 0 0 0-12-12z"/><path style="fill:#f4f4f7" d="M31 14a12 12 0 0 0-11.96 11.229A9 9 0 0 0 12 34a9 9 0 0 0 9 9h-.043l.818.045c.195.683.373 1.377.325 2.053.023 1.698-.91 2.732-2.053 3.722-.29.155-.513.334-.492.399.069.213 1.402.667 2.187.746 1.013.101 2.422-.022 3.229-.324 1.282-.481 2.313-1.283 3.039-2.37.62-.929.945-1.848 1.043-2.921l.082-1.305L34.156 43H44.5a7.5 7.5 0 0 0 7.5-7.5 7.5 7.5 0 0 0-7.5-7.5 7.5 7.5 0 0 0-1.71.207A12 12 0 0 0 43 26a12 12 0 0 0-12-12z"/><path style="fill:#f4f4f7;opacity:.2" d="M6.8 4C5.25 4 4 5.25 4 6.8v1C4 6.25 5.25 5 6.8 5h50.4C58.75 5 60 6.25 60 7.8v-1C60 5.25 58.75 4 57.2 4H6.8z"/></svg>
